X:8
T:A Kilfenora Reel
R:reel
D:Brian Rooney
S:Clare FM
Z:psc -  http://www.cranfordpub.com
L:1/8
Q:333
M:C|
K:D
D3 F A2 af|gbfe dBBA|B2 AF ABde|fded BdAF|
(3DED DF A2 Af|gbfe dBBA|BAFB ABde|fded B2 AB||
||d2 fd Adfd|defd BAFA|defd Adef|gefd B2 AB|
d2 fd Adfd|defd B2 Bc|dedB BAFB ABde fdAF|]
